X:18120
T:Vals efter Harald Johansson, Nsteln
A:Nsteln, S. Jmtland
O:Sweden
M:3/4
L:1/8
K:A
(A,2 C2) E2|(A,2 C2) E2|c3 B A2|c3 B A2|d3 c B2|d3 c B2|((3efe) (^de) (f
e)|c3 B A2|\
(vA,2 C2) E2|(A,2 C2) E2|c3 B A2|c3 B A2|d3 c B2|d3 c B2|((3efe) (^de) (
fe)|c3 e ((3efg)|\
(a2 g2) a2|(f2 g2) a2|(ga) (ba) gf|e3 d (cB)|(A2 .G2 .F2)|(E2 F2) G2|A3
B (cB)|A4 cd|:\
e3 f ed|ce A2 (cA)|cd E2 (GB)|(AG) (AB) cd|e3 f ed|ce A2 (cA)|cd E2 (GB)
|[1A4 (cd):|[2A6|]
